Sources/FrostedUI/Resources/Icons.xcassets/cursorOutline24.imageset/cursor-outline-24.svg

<svg width="24" height="24" viewBox="0 0 24 24" fill="none" xmlns="http://www.w3.org/2000/svg" data-fui-icon="true">
  <path
    d="M2.74473 4.97896C2.25247 3.59073 3.59073 2.25247 4.97896 2.74473L20.8063 8.35702C22.3153 8.89213 22.3728 11.005 20.8952 11.6215L16.0978 13.6229L20.1125 17.6376C20.7959 18.321 20.7959 19.429 20.1125 20.1124C19.429 20.7959 18.321 20.7959 17.6376 20.1124L13.6229 16.0977L11.6215 20.8952C11.005 22.3728 8.89213 22.3153 8.35702 20.8063L2.74473 4.97896Z"
    stroke="currentColor"
    stroke-width="1.5"
    stroke-linejoin="round"
  />
</svg>

<svg xmlns="http://www.w3.org/2000/svg" width="24" height="24" fill="none" data-fui-icon="true" viewBox="0 0 24 24"><path stroke="currentColor" stroke-linejoin="round" stroke-width="1.5" d="M2.745 4.979c-.493-1.388.846-2.727 2.234-2.234l15.827 5.612c1.51.535 1.567 2.648.09 3.265l-4.798 2 4.015 4.016a1.75 1.75 0 1 1-2.475 2.474l-4.015-4.014-2.001 4.797c-.617 1.478-2.73 1.42-3.265-.089z"/></svg>
